svgs/sharp-solid/toothbrush.svg

<svg xmlns="http://www.w3.org/2000/svg" viewBox="0 0 576 512"><!--! Font Awesome Pro 6.6.0 by @fontawesome - https://fontawesome.com License - https://fontawesome.com/license (Commercial License) Copyright 2024 Fonticons, Inc. --><path d="M0 160c0-35.3 28.7-64 64-64l224 0c37.7 0 40-33.2 40-64c57.4 0 120 31.6 120 96c0 53-43 96-96 96L64 224 0 224l0-64zm80 96l0 24 0 136 32 0 0-136 0-24 48 0 0 24 0 136 32 0 0-136 0-24 48 0 0 24 0 136 32 0 0-136 0-24 48 0 0 24 0 136 32 0 0-136 0-24 48 0 0 24 0 136 144 0 32 0 0 64-32 0L32 480 0 480l0-64 32 0 0-136 0-24 48 0z"/></svg>

<svg xmlns="http://www.w3.org/2000/svg" viewBox="0 0 576 512"><!--! Font Awesome Pro 6.5.2 by @fontawesome - https://fontawesome.com License - https://fontawesome.com/license (Commercial License) Copyright 2024 Fonticons, Inc. --><path d="M0 160c0-35.3 28.7-64 64-64H288c37.7 0 40-33.2 40-64c57.4 0 120 31.6 120 96c0 53-43 96-96 96H64 0V160zm80 96v24V416h32V280 256h48v24V416h32V280 256h48v24V416h32V280 256h48v24V416h32V280 256h48v24V416H544h32v64H544 32 0V416H32V280 256H80z"/></svg>
